X: 1
T: Paddy Fahy's
M: 4/4
L: 1/8
R: reel
K: Gmaj
~B3 d c2 dc|BGdB cAAc|BGdB G3 d|(3efg eg fdcA|
~B3 d c2 dc|BGdB cAAg|fdfA gfd=f|eceg fAdf|
g3 a bgag|fdd=f ec~c2|g3 a bgag|fAde ~=f3 d|
g3 a bgag|fdd=f ec~c2|d3 =f eceg|fdfa gfdc|
